src/assets/img/redis.svg

<svg
          width="71"
          height="61"
          viewBox="0 0 71 61"
          fill="none"
          xmlns="http://www.w3.org/2000/svg"
        >
          <g clip-path="url(#clip0)">
            <path
              d="M68.0843 46.6521C64.3026 48.6185 44.713 56.6538 40.5425 58.8229C36.372 60.9922 34.0551 60.9712 30.7604 59.4C27.4659 57.8288 6.6191 49.4281 2.86376 47.6374C0.987065 46.7427 0 45.9872 0 45.2737V38.1283C0 38.1283 27.1402 32.2342 31.5216 30.666C35.9028 29.0978 37.423 29.0412 41.1514 30.4037C44.8805 31.7667 67.1755 35.7795 70.8606 37.126L70.8589 44.1702C70.8595 44.8766 70.0091 45.6514 68.0843 46.6521Z"
              fill="#912626"
            />
            <path
              d="M68.0828 39.5487C64.3015 41.5142 44.7124 49.5498 40.5419 51.7185C36.3716 53.8881 34.0548 53.8669 30.7603 52.2957C27.4656 50.7256 6.61959 42.3236 2.86453 40.5339C-0.890525 38.7432 -0.969136 37.5108 2.71949 36.0699C6.40811 34.6285 27.1398 26.5142 31.5218 24.946C35.903 23.3784 37.4229 23.3212 41.1514 24.6842C44.8801 26.0467 64.3524 33.7788 68.0369 35.125C71.7227 36.4728 71.8642 37.5826 68.0828 39.5487Z"
              fill="#C6302B"
            />
            <path
              d="M68.0843 35.0904C64.3026 37.0571 44.713 45.0921 40.5425 47.262C36.372 49.4305 34.0551 49.4095 30.7604 47.8383C27.4657 46.2679 6.6191 37.8664 2.86376 36.0757C0.987065 35.181 0 34.4266 0 33.7128V26.5666C0 26.5666 27.1402 20.6728 31.5216 19.1046C35.9028 17.5364 37.423 17.4795 41.1514 18.8423C44.8808 20.205 67.1758 24.217 70.8606 25.5637L70.8589 32.6088C70.8595 33.3149 70.0091 34.0897 68.0843 35.0904Z"
              fill="#912626"
            />
            <path
              d="M68.0828 27.986C64.3015 29.9521 44.7124 37.9871 40.5419 40.1567C36.3716 42.3255 34.0548 42.3042 30.7603 40.733C27.4656 39.1629 6.61959 30.7612 2.86453 28.9713C-0.890525 27.1811 -0.969136 25.9484 2.71949 24.507C6.40811 23.0664 27.1401 14.9516 31.5218 13.3837C35.903 11.8158 37.4229 11.7589 41.1514 13.1216C44.8801 14.4841 64.3524 22.2156 68.0369 23.5623C71.7227 24.9099 71.8642 26.0199 68.0828 27.986Z"
              fill="#C6302B"
            />
            <path
              d="M68.0843 23.0996C64.3026 25.0657 44.713 33.1013 40.5425 35.2712C36.372 37.4399 34.0551 37.4187 30.7604 35.8475C27.4657 34.2771 6.6191 25.8753 2.86376 24.0854C0.987065 23.1899 0 22.4352 0 21.7223V14.5758C0 14.5758 27.1402 8.68227 31.5216 7.11437C35.9028 5.54591 37.423 5.48958 41.1514 6.85204C44.8808 8.21477 67.1758 12.2268 70.8606 13.5735L70.8589 20.6183C70.8595 21.3238 70.0091 22.0986 68.0843 23.0996Z"
              fill="#912626"
            />
            <path
              d="M68.0828 15.9964C64.3015 17.9625 44.7124 25.9981 40.5419 28.1669C36.3716 30.3357 34.0548 30.3144 30.7603 28.744C27.4659 27.1728 6.61957 18.7716 2.86479 16.9814C-0.890541 15.1915 -0.968875 13.9586 2.71947 12.5174C6.4081 11.0765 27.1401 2.96281 31.5218 1.39435C35.903 -0.173826 37.4229 -0.230158 41.1514 1.13257C44.8801 2.49531 64.3524 10.2268 68.0369 11.5736C71.7227 12.92 71.8642 14.0304 68.0828 15.9964Z"
              fill="#C6302B"
            />
            <path
              d="M44.0894 9.04542L37.997 9.67639L36.6332 12.9503L34.4305 9.29698L27.3956 8.66628L32.6448 6.77779L31.0699 3.87891L35.9844 5.7964L40.6175 4.28317L39.3652 7.28063L44.0894 9.04542ZM36.2695 24.9282L24.8995 20.2237L41.1918 17.7288L36.2695 24.9282ZM20.5058 10.8652C25.3152 10.8652 29.2139 12.3729 29.2139 14.2324C29.2139 16.0924 25.3152 17.5998 20.5058 17.5998C15.6964 17.5998 11.7977 16.0921 11.7977 14.2324C11.7977 12.3729 15.6964 10.8652 20.5058 10.8652Z"
              fill="white"
            />
            <path
              d="M51.2894 9.94071L60.932 13.742L51.2977 17.5397L51.2894 9.94043"
              fill="#621B1C"
            />
            <path
              d="M40.6216 14.1501L51.2894 9.94043L51.2977 17.5394L50.2517 17.9475L40.6216 14.1501Z"
              fill="#9A2928"
            />
          </g>
          <defs>
            <clipPath id="clip0">
              <rect
                width="70.875"
                height="60.75"
                fill="white"
              />
            </clipPath>
          </defs>
        </svg>

<svg fill="none" xmlns="http://www.w3.org/2000/svg" viewBox="0 0 71 61"><g clip-path="url(#clip0)"><path d="M68.084 46.652c-3.781 1.966-23.371 10.002-27.542 12.17-4.17 2.17-6.487 2.15-9.782.578-3.294-1.571-24.14-9.972-27.896-11.763C.987 46.743 0 45.987 0 45.274v-7.146s27.14-5.894 31.522-7.462c4.38-1.568 5.901-1.625 9.63-.262 3.728 1.363 26.023 5.375 29.709 6.722l-.002 7.044c0 .707-.85 1.481-2.775 2.482z" fill="#912626"/><path d="M68.083 39.549c-3.781 1.965-23.37 10-27.541 12.17-4.17 2.17-6.487 2.148-9.782.577-3.294-1.57-24.14-9.972-27.895-11.762-3.756-1.79-3.834-3.023-.146-4.464 3.69-1.441 24.42-9.556 28.803-11.124 4.381-1.568 5.9-1.625 9.63-.262 3.728 1.363 23.2 9.095 26.885 10.441 3.686 1.348 3.827 2.458.046 4.424z" fill="#C6302B"/><path d="M68.084 35.09c-3.781 1.967-23.371 10.002-27.542 12.172-4.17 2.169-6.487 2.148-9.782.576-3.294-1.57-24.14-9.972-27.896-11.762C.987 35.18 0 34.426 0 33.713v-7.146s27.14-5.894 31.522-7.462c4.38-1.569 5.901-1.625 9.63-.263 3.729 1.363 26.024 5.375 29.709 6.722l-.002 7.045c0 .706-.85 1.48-2.775 2.481z" fill="#912626"/><path d="M68.083 27.986c-3.781 1.966-23.37 10.001-27.541 12.17-4.17 2.17-6.487 2.148-9.782.577-3.294-1.57-24.14-9.972-27.895-11.762-3.756-1.79-3.834-3.023-.146-4.464 3.69-1.44 24.421-9.555 28.803-11.123 4.381-1.568 5.9-1.625 9.63-.262 3.728 1.362 23.2 9.094 26.885 10.44 3.686 1.348 3.827 2.458.046 4.424z" fill="#C6302B"/><path d="M68.084 23.1c-3.781 1.966-23.371 10-27.542 12.17-4.17 2.169-6.487 2.148-9.782.576-3.294-1.57-24.14-9.972-27.896-11.762C.987 23.19 0 22.435 0 21.722v-7.146s27.14-5.894 31.522-7.462c4.38-1.568 5.901-1.624 9.63-.262 3.729 1.363 26.024 5.375 29.709 6.721l-.002 7.045c0 .706-.85 1.48-2.775 2.482z" fill="#912626"/><path d="M68.083 15.996c-3.781 1.966-23.37 10.002-27.541 12.17-4.17 2.17-6.487 2.148-9.782.578-3.294-1.571-24.14-9.972-27.895-11.763-3.756-1.79-3.834-3.022-.146-4.464 3.69-1.44 24.421-9.554 28.803-11.123 4.381-1.568 5.9-1.624 9.63-.261 3.728 1.362 23.2 9.094 26.885 10.44 3.686 1.347 3.827 2.457.046 4.423z" fill="#C6302B"/><path d="M44.09 9.045l-6.093.631-1.364 3.274-2.203-3.653-7.034-.63 5.249-1.89L31.07 3.88l4.914 1.917 4.633-1.513-1.252 2.998 4.724 1.764zm-7.82 15.883L24.9 20.224l16.292-2.495-4.922 7.2zM20.506 10.865c4.81 0 8.708 1.508 8.708 3.367 0 1.86-3.899 3.368-8.708 3.368-4.81 0-8.708-1.508-8.708-3.368 0-1.86 3.898-3.367 8.708-3.367z" fill="#fff"/><path d="M51.29 9.94l9.642 3.802-9.634 3.798-.009-7.6" fill="#621B1C"/><path d="M40.622 14.15l10.667-4.21.009 7.6-1.046.408-9.63-3.798z" fill="#9A2928"/></g><defs><clipPath id="clip0"><path fill="#fff" d="M0 0h70.875v60.75H0z"/></clipPath></defs></svg>
